X:466
T:The dance of the honeybees
R:Hornpipe
O:Ireland
C:Charlie Lennon
P:APB Altan
D:Altan: Blackwater
S:Altan: Blackwater
Z:Transcription, minor arr.,chords:Mike Long
M:4/4
L:1/8
K:D
AG|\
"D"F2FE DFAF|"G"GAFG "A"E2EF|"G"GFGA (3(Bcd) ed|"A"cded cAGE|\
"D"~F2EF DFAF|
"G"GAFG "A"E2EF|"G"GFGA (3(Bcd) ed|"A"cAGE "D"D2:|\
|:(3(ABc)|\
"D"dAaA fAdA|(3(Bcd) AF DEFA|
"Em"Beed efed|"A"cdef (3(gag) fe|\
"D"dAaA fAdA|(3(Bcd) AF DEFA|"G"Beed cded|"A"cAGE "D"D2:|
